X: 620
T: Sijie diaocaiya
%%abc-version 2.0
%%abcx-abcm2ps-target-version 5.9.1 (29 Sep 2008)
%%abc-creator hum2abc beta
%%abcx-conversion-date 2013/10/02 07:52:30
%%abc-edited-by Helmut Schaffrath
%%humdrum-veritas 3273061129
%%humdrum-veritas-data 3254645803
%%continueall 1
%%barnumbers 0
L: 1/8
M: 2/4
K: A
Be2d [I:setbarnb 1]| 
B4 | 
fe2B | 
A4 | 
Be2d | 
B2A2 | 
BF2E | 
D2z2 | 
EE2F | 
B2d B | 
BB2E | 
F2z2 | 
BB2B | 
d B A F | 
E2E F | 
A2A F | 
E F E D | 
B,2z2 |]  



